static/fast.svg

<svg width="81" height="79" viewBox="0 0 81 79" fill="none" xmlns="http://www.w3.org/2000/svg">
<path d="M60.1562 12.7812C58.5616 12.7812 57.0028 13.2541 55.6769 14.14C54.3511 15.0259 53.3177 16.2851 52.7075 17.7584C52.0972 19.2316 51.9376 20.8527 52.2486 22.4167C52.5597 23.9806 53.3276 25.4172 54.4552 26.5448C55.5827 27.6724 57.0193 28.4402 58.5833 28.7513C60.1473 29.0624 61.7684 28.9028 63.2416 28.2925C64.7148 27.6823 65.974 26.6489 66.8599 25.323C67.7459 23.9972 68.2187 22.4384 68.2187 20.8437C68.2163 18.7062 67.3661 16.6568 65.8546 15.1454C64.3431 13.6339 62.2938 12.7837 60.1562 12.7812ZM60.1562 26.2188C59.0932 26.2188 58.054 25.9035 57.17 25.3129C56.2861 24.7223 55.5972 23.8828 55.1904 22.9007C54.7836 21.9185 54.6771 20.8378 54.8845 19.7951C55.0919 18.7525 55.6038 17.7948 56.3555 17.043C57.1072 16.2913 58.065 15.7794 59.1076 15.572C60.1503 15.3646 61.231 15.4711 62.2132 15.8779C63.1953 16.2847 64.0348 16.9736 64.6254 17.8576C65.216 18.7415 65.5312 19.7807 65.5312 20.8437C65.5296 22.2688 64.9628 23.635 63.9551 24.6427C62.9475 25.6503 61.5813 26.2171 60.1562 26.2188Z" fill="#1D4283"/>
<path d="M39.8369 42.1808L41.4113 40.6065L39.5111 38.706L37.9366 40.2804C36.3305 41.8832 35.0099 43.7486 34.032 45.7961L36.4574 46.9539C37.3038 45.182 38.4468 43.5677 39.8369 42.1808Z" fill="#1D4283"/>
<path d="M32.2879 51.5584L34.9478 51.9416C35.0696 51.0978 35.2531 50.264 35.4968 49.447L32.9218 48.678C32.6403 49.6213 32.4284 50.5841 32.2879 51.5584Z" fill="#1D4283"/>
<path d="M78.9687 0.687475H74.4295C71.0045 0.678107 67.6117 1.34816 64.4474 2.65886C61.2831 3.96956 58.4102 5.89487 55.9951 8.32333C53.4081 10.9134 51.0886 13.7575 49.0717 16.8125H44.3573C42.3726 16.8071 40.4065 17.1953 38.5728 17.9549C36.7391 18.7144 35.0743 19.8301 33.6747 21.2373C33.4227 21.4893 33.2812 21.8311 33.2812 22.1875C33.2812 22.5438 33.4227 22.8856 33.6747 23.1376L39.0497 28.5126C39.3018 28.7646 39.6436 28.9062 40 28.9062H43.0695C42.9976 29.1118 42.9263 29.3175 42.8569 29.5239L39.0497 33.3311C33.0286 39.3561 27.5573 45.9065 22.701 52.9044C21.4879 51.8911 20.0661 51.1579 18.5371 50.7572C17.0081 50.3565 15.4095 50.2981 13.8553 50.5862C12.3011 50.8743 10.8296 51.5018 9.54586 52.4239C8.26206 53.3461 7.19757 54.5401 6.42828 55.921C5.26734 55.6805 4.06345 55.7513 2.9387 56.1262C1.81394 56.501 0.808298 57.1667 0.0237427 58.0555L2.0387 59.8338C2.41719 59.405 2.88251 59.0615 3.40381 58.8262C3.92512 58.5908 4.4905 58.469 5.06247 58.4687C5.17549 58.4687 5.2876 58.4743 5.39902 58.4835C5.17504 59.3567 5.06197 60.2547 5.06247 61.1562H7.74997C7.74941 59.6006 8.19903 58.0781 9.04459 56.7724C9.89014 55.4667 11.0955 54.4336 12.5152 53.7978C13.9349 53.1619 15.5083 52.9505 17.0454 53.189C18.5826 53.4276 20.0179 54.1059 21.1782 55.1421C20.7469 55.7892 20.3205 56.4394 19.8988 57.0926L19.659 57.4654C18.6694 59.0125 17.3056 60.2849 15.6937 61.1649C14.0818 62.0449 12.2739 62.5041 10.4375 62.5V65.1875C12.7241 65.1926 14.9751 64.6209 16.9821 63.5252C18.9891 62.4295 20.6873 60.8452 21.9195 58.919L22.1594 58.5462C27.3317 50.5053 33.3117 43.0137 40.0064 36.188L44.8183 41L41.7372 44.0811C38.9906 46.8278 37.4476 50.5531 37.4476 54.4375C37.4476 58.3218 38.9906 62.0471 41.7372 64.7939L43.6377 62.8936C41.8561 61.1208 40.6833 58.8281 40.2882 56.346C41.0301 55.9761 41.8474 55.7828 42.6764 55.7812C43.5053 55.7796 44.3234 55.9698 45.0667 56.3368C45.81 56.7039 46.4582 57.2379 46.9609 57.897C47.4636 58.5562 47.8069 59.3227 47.9642 60.1366C47.3676 60.2769 46.7827 60.4626 46.2145 60.6921L47.2229 63.1833C48.6511 62.6072 50.1988 62.3904 51.7302 62.5518C53.2617 62.7132 54.7302 63.2479 56.0069 64.109C57.2836 64.9701 58.3295 66.1312 59.0529 67.4907C59.7764 68.8501 60.1552 70.3663 60.1562 71.9062H62.8437C62.8401 68.6999 61.5648 65.6259 59.2976 63.3586C57.0303 61.0914 53.9563 59.8161 50.75 59.8125C50.712 59.8125 50.6743 59.8148 50.6363 59.8152C50.443 58.6711 50.0051 57.5822 49.3525 56.6229C48.6999 55.6635 47.848 54.8562 46.8549 54.2562C45.8619 53.6561 44.751 53.2773 43.5983 53.1458C42.4455 53.0142 41.2778 53.1329 40.1751 53.4937C40.3909 50.6554 41.6199 47.9892 43.6377 45.9814L51.476 38.143C51.6824 38.0737 51.8881 38.0023 52.0937 37.9304V41C52.0937 41.3563 52.2353 41.6981 52.4872 41.9501L57.8622 47.3251C58.1142 47.5771 58.4561 47.7187 58.8125 47.7187C59.1689 47.7187 59.5107 47.5771 59.7627 47.3251C61.1699 45.9256 62.2856 44.2608 63.0451 42.4271C63.8046 40.5935 64.1929 38.6274 64.1875 36.6427V31.9282C67.2425 29.9112 70.0866 27.5917 72.6768 25.0048C75.1052 22.5896 77.0304 19.7167 78.3411 16.5525C79.6517 13.3882 80.3218 9.99543 80.3125 6.57048V2.03122C80.3125 1.67484 80.1709 1.33306 79.9189 1.08105C79.6669 0.829053 79.3251 0.687478 78.9687 0.687475ZM77.625 3.37497V6.57048C77.6266 8.64804 77.3527 10.7166 76.8106 12.7222C74.8206 12.4994 72.9662 11.6042 71.5538 10.1847L70.8153 9.4462C69.3958 8.03382 68.5006 6.17936 68.2777 4.1893C70.2833 3.6472 72.3519 3.37338 74.4295 3.37497H77.625ZM40.5565 26.2187L36.5758 22.2379C38.7782 20.4587 41.526 19.4919 44.3573 19.5H47.4044C46.148 21.6614 45.0411 23.9062 44.0913 26.2187H40.5565ZM41.9004 34.2812L44.0312 32.1504L48.8496 36.9687L46.7187 39.0996L41.9004 34.2812ZM61.5 36.6427C61.5081 39.474 60.5412 42.2218 58.7619 44.4241L54.7812 40.4434V36.9086C57.0938 35.9588 59.3386 34.8519 61.5 33.5955V36.6427ZM70.7763 23.1046C65.2295 28.6375 58.5074 32.8494 51.1092 35.4276L45.5724 29.8908C48.1505 22.4926 52.3625 15.7703 57.8955 10.2236C60.1174 7.99442 62.7673 6.23781 65.6857 5.05942C66.0732 7.44286 67.2033 9.64314 68.9149 11.3465L69.6533 12.085C71.3567 13.7966 73.557 14.9267 75.9404 15.3142C74.762 18.2327 73.0054 20.8826 70.7763 23.1046Z" fill="#1D4283"/>
<path d="M9.12548 71.0355C7.86971 70.5853 6.52181 70.4537 5.20267 70.6526C3.88352 70.8516 2.63439 71.3749 1.56729 72.1755L3.18136 74.3243C3.98003 73.7256 4.92961 73.3611 5.92374 73.2716C6.91787 73.1822 7.91728 73.3712 8.81002 73.8177C9.70276 74.2641 10.4536 74.9503 10.9783 75.7994C11.5031 76.6484 11.7811 77.6269 11.7812 78.625H14.4687C14.4687 77.4228 14.1995 76.2359 13.6807 75.1514C13.1619 74.0669 12.4068 73.1124 11.4708 72.3579C12.3966 70.8882 13.8554 69.8339 15.5414 69.4161C17.2274 68.9983 19.0097 69.2494 20.5146 70.1167L21.8603 67.7904C19.7337 66.5638 17.2119 66.2165 14.8328 66.8227C12.4538 67.429 10.4057 68.9407 9.12548 71.0355Z" fill="#1D4283"/>
<path d="M34.625 65.1875C32.3109 65.1859 30.0777 66.039 28.3539 67.5829L30.1461 69.5854C31.2587 68.5923 32.6699 67.9974 34.1577 67.8943C35.6454 67.7912 37.1252 68.1859 38.3641 69.0161C39.603 69.8463 40.5306 71.065 41.0008 72.4802C41.4711 73.8955 41.4573 75.4269 40.9617 76.8335L43.4957 77.729C43.996 76.31 44.1488 74.7918 43.9413 73.3016C43.7339 71.8115 43.1722 70.3927 42.3034 69.1644C41.4346 67.936 40.2839 66.9339 38.9479 66.2419C37.612 65.55 36.1295 65.1884 34.625 65.1875Z" fill="#1D4283"/>
</svg>

<svg width="81" height="79" fill="none" xmlns="http://www.w3.org/2000/svg"><path d="M60.156 12.781a8.063 8.063 0 1 0 8.063 8.063 8.071 8.071 0 0 0-8.063-8.063zm0 13.438a5.376 5.376 0 1 1 5.375-5.375 5.381 5.381 0 0 1-5.375 5.375zM39.837 42.18l1.574-1.574-1.9-1.9-1.574 1.574a19.923 19.923 0 0 0-3.905 5.516l2.425 1.158a17.238 17.238 0 0 1 3.38-4.773zM32.288 51.558l2.66.384c.122-.844.305-1.678.549-2.495l-2.575-.769a20.111 20.111 0 0 0-.634 2.88z" fill="#1D4283"/><path d="M78.969.687h-4.54a25.9 25.9 0 0 0-18.434 7.636 54.512 54.512 0 0 0-6.923 8.49h-4.715a15.008 15.008 0 0 0-10.682 4.424 1.344 1.344 0 0 0 0 1.9l5.375 5.376c.252.252.594.393.95.393h3.07c-.072.206-.144.412-.213.618L39.05 33.33A143.135 143.135 0 0 0 22.7 52.904a10.744 10.744 0 0 0-16.273 3.017 6.723 6.723 0 0 0-6.404 2.135l2.015 1.778a4.035 4.035 0 0 1 3.36-1.35 10.733 10.733 0 0 0-.337 2.672H7.75a8.06 8.06 0 0 1 13.428-6.014c-.431.647-.858 1.297-1.28 1.95l-.239.373a10.917 10.917 0 0 1-9.221 5.035v2.688a13.595 13.595 0 0 0 11.481-6.269l.24-.373a140.412 140.412 0 0 1 17.847-22.358L44.818 41l-3.08 3.081a14.646 14.646 0 0 0 0 20.713l1.9-1.9a11.87 11.87 0 0 1-3.35-6.548 5.375 5.375 0 0 1 7.676 3.79c-.596.14-1.181.327-1.75.556l1.009 2.491a9.412 9.412 0 0 1 12.933 8.723h2.688A12.108 12.108 0 0 0 50.75 59.812l-.114.003a8.064 8.064 0 0 0-10.46-6.321 11.867 11.867 0 0 1 3.462-7.513l7.838-7.838c.206-.07.412-.14.618-.213V41c0 .356.141.698.393.95l5.375 5.375a1.344 1.344 0 0 0 1.9 0 15.007 15.007 0 0 0 4.425-10.682v-4.715a54.53 54.53 0 0 0 8.49-6.923A25.9 25.9 0 0 0 80.312 6.57V2.031A1.344 1.344 0 0 0 78.97.687zm-1.344 2.688V6.57a23.507 23.507 0 0 1-.814 6.152 8.796 8.796 0 0 1-5.257-2.537l-.739-.739a8.797 8.797 0 0 1-2.537-5.257 23.507 23.507 0 0 1 6.151-.814h3.196zM40.556 26.219l-3.98-3.981a12.327 12.327 0 0 1 7.781-2.738h3.047a54.79 54.79 0 0 0-3.313 6.719h-3.535zM41.9 34.28l2.131-2.13 4.819 4.818-2.131 2.13-4.819-4.818zm19.6 2.362a12.326 12.326 0 0 1-2.738 7.781l-3.98-3.98v-3.535a54.784 54.784 0 0 0 6.718-3.313v3.047zm9.276-13.538A52.148 52.148 0 0 1 51.11 35.428l-5.537-5.537a52.145 52.145 0 0 1 12.323-19.667 23.334 23.334 0 0 1 7.79-5.165 11.466 11.466 0 0 0 3.23 6.288l.738.738a11.466 11.466 0 0 0 6.287 3.23 23.336 23.336 0 0 1-5.164 7.79zM9.125 71.035a8.062 8.062 0 0 0-7.558 1.14l1.614 2.15a5.376 5.376 0 0 1 8.6 4.3h2.688a8.05 8.05 0 0 0-2.998-6.267 6.722 6.722 0 0 1 9.044-2.241l1.345-2.327a9.413 9.413 0 0 0-12.735 3.245z" fill="#1D4283"/><path d="M34.625 65.188a9.39 9.39 0 0 0-6.271 2.395l1.792 2.002a6.722 6.722 0 0 1 10.816 7.249l2.534.895a9.411 9.411 0 0 0-8.871-12.541z" fill="#1D4283"/></svg>
